P3
32 32
255
23 20 46
5 8 18
5 8 18
5 8 18
5 8 18
5 8 18
5 8 18
5 8 18
5 8 18
5 8 18
5 8 18
5 8 18
5 8 18
5 8 18
5 8 18
5 8 18
5 8 18
5 8 18
5 8 18
5 8 18
5 8 18
5 8 18
5 8 18
23 20 46
5 8 18
5 8 18
5 8 18
5 8 18
5 8 18
5 8 18
5 8 18
5 8 18
5 8 18
28 42 68
28 42 68
28 42 68
28 42 68
28 42 68
28 42 68
28 42 68
5 8 18
28 42 68
28 42 68
28 42 68
28 42 68
28 42 68
28 42 68
28 42 68
5 8 18
28 42 68
28 42 68
28 42 68
28 42 68
28 42 68
46 54 96
28 42 68
5 8 18
28 42 68
28 42 68
28 42 68
28 42 68
28 42 68
28 42 68
28 42 68
5 8 18
28 42 68
22 29 56
23 30 58
24 31 60
25 32 62
26 33 64
14 21 40
5 8 18
28 42 68
17 24 46
18 25 48
19 26 50
25 32 62
26 33 64
27 34 66
5 8 18
28 42 68
12 19 36
13 20 38
19 26 50
38 39 80
21 28 54
22 29 56
5 8 18
28 42 68
12 19 36
13 20 38
14 21 40
15 22 42
16 23 44
17 24 46
5 8 18
28 42 68
19 26 50
21 28 54
23 30 58
12 19 36
14 21 40
16 23 44
5 8 18
28 42 68
27 34 66
29 36 70
13 20 38
20 27 52
22 29 56
24 31 60
5 8 18
28 42 68
17 24 46
19 26 50
39 40 82
23 30 58
12 19 36
14 21 40
5 8 18
28 42 68
25 32 62
27 34 66
29 36 70
13 20 38
15 22 42
22 29 56
5 8 18
28 42 68
16 23 44
19 26 50
27 34 66
12 19 36
15 22 42
23 30 58
5 8 18
28 42 68
19 26 50
22 29 56
25 32 62
15 22 42
18 25 48
21 28 54
5 8 18
28 42 68
17 24 46
38 39 80
28 35 68
13 20 38
16 23 44
24 31 60
5 8 18
28 42 68
20 27 52
23 30 58
26 33 64
29 36 70
19 26 50
22 29 56
5 8 18
28 42 68
13 20 38
22 29 56
26 33 64
12 19 36
21 28 54
25 32 62
5 8 18
28 42 68
24 31 60
15 22 42
19 26 50
28 35 68
14 21 40
18 25 48
5 8 18
28 42 68
35 36 74
26 33 64
12 19 36
21 28 54
25 32 62
29 36 70
5 8 18
28 42 68
15 22 42
19 26 50
23 30 58
14 21 40
18 25 48
22 29 56
5 8 18
28 42 68
28 35 68
20 27 52
25 32 62
17 24 46
22 29 56
14 21 40
5 8 18
28 42 68
16 23 44
26 33 64
13 20 38
23 30 58
28 35 68
15 22 42
5 8 18
46 54 96
22 29 56
27 34 66
19 26 50
24 31 60
16 23 44
21 28 54
5 8 18
28 42 68
28 35 68
15 22 42
20 27 52
12 19 36
17 24 46
27 34 66
5 8 18
28 42 68
12 19 36
18 25 48
29 36 70
17 24 46
28 35 68
16 23 44
5 8 18
28 42 68
26 33 64
14 21 40
25 32 62
18 25 48
24 31 60
17 24 46
23 20 46
28 42 68
22 29 56
15 22 42
21 28 54
14 21 40
20 27 52
13 20 38
5 8 18
28 42 68
23 30 58
29 36 70
22 29 56
28 35 68
21 28 54
27 34 66
5 8 18
5 8 18
5 8 18
5 8 18
5 8 18
5 8 18
5 8 18
5 8 18
5 8 18
5 8 18
5 8 18
5 8 18
5 8 18
5 8 18
5 8 18
23 20 46
5 8 18
5 8 18
5 8 18
5 8 18
5 8 18
5 8 18
5 8 18
5 8 18
5 8 18
5 8 18
5 8 18
5 8 18
5 8 18
5 8 18
5 8 18
5 8 18
5 8 18
28 42 68
28 42 68
28 42 68
28 42 68
28 42 68
28 42 68
28 42 68
5 8 18
28 42 68
28 42 68
28 42 68
28 42 68
28 42 68
46 54 96
28 42 68
5 8 18
28 42 68
28 42 68
28 42 68
28 42 68
28 42 68
28 42 68
28 42 68
5 8 18
28 42 68
28 42 68
28 42 68
28 42 68
28 42 68
28 42 68
28 42 68
5 8 18
28 42 68
21 28 54
17 24 46
13 20 38
22 29 56
18 25 48
14 21 40
5 8 18
28 42 68
15 22 42
29 36 70
25 32 62
39 40 82
12 19 36
26 33 64
5 8 18
28 42 68
27 34 66
23 30 58
19 26 50
15 22 42
24 31 60
20 27 52
5 8 18
28 42 68
26 33 64
17 24 46
13 20 38
27 34 66
23 30 58
14 21 40
5 8 18
28 42 68
18 25 48
15 22 42
12 19 36
27 34 66
24 31 60
16 23 44
5 8 18
28 42 68
25 32 62
22 29 56
37 38 78
16 23 44
26 33 64
23 30 58
5 8 18
28 42 68
14 21 40
29 36 70
21 28 54
18 25 48
15 22 42
12 19 36
5 8 18
28 42 68
21 28 54
13 20 38
28 35 68
25 32 62
22 29 56
19 26 50
5 8 18
28 42 68
15 22 42
13 20 38
29 36 70
27 34 66
25 32 62
23 30 58
5 8 18
28 42 68
17 24 46
33 34 70
13 20 38
29 36 70
22 29 56
20 27 52
5 8 18
28 42 68
14 21 40
12 19 36
28 35 68
26 33 64
24 31 60
22 29 56
5 8 18
28 42 68
16 23 44
27 34 66
25 32 62
23 30 58
21 28 54
19 26 50
5 8 18
28 42 68
17 24 46
16 23 44
15 22 42
14 21 40
13 20 38
12 19 36
5 8 18
28 42 68
45 46 94
26 33 64
25 32 62
24 31 60
23 30 58
22 29 56
5 8 18
28 42 68
19 26 50
18 25 48
17 24 46
16 23 44
15 22 42
14 21 40
5 8 18
28 42 68
29 36 70
28 35 68
27 34 66
26 33 64
25 32 62
24 31 60
5 8 18
28 42 68
14 21 40
14 21 40
14 21 40
14 21 40
14 21 40
14 21 40
5 8 18
46 54 96
14 21 40
14 21 40
14 21 40
19 26 50
19 26 50
19 26 50
5 8 18
28 42 68
19 26 50
19 26 50
19 26 50
19 26 50
19 26 50
19 26 50
5 8 18
28 42 68
24 31 60
24 31 60
24 31 60
24 31 60
24 31 60
24 31 60
5 8 18
28 42 68
29 36 70
12 19 36
13 20 38
14 21 40
15 22 42
21 28 54
23 20 46
28 42 68
24 31 60
25 32 62
26 33 64
14 21 40
15 22 42
16 23 44
5 8 18
28 42 68
19 26 50
20 27 52
26 33 64
27 34 66
28 35 68
29 36 70
5 8 18
28 42 68
19 26 50
20 27 52
21 28 54
22 29 56
23 30 58
42 43 88
5 8 18
5 8 18
5 8 18
5 8 18
5 8 18
5 8 18
5 8 18
23 20 46
5 8 18
5 8 18
5 8 18
5 8 18
5 8 18
5 8 18
5 8 18
5 8 18
5 8 18
5 8 18
5 8 18
5 8 18
5 8 18
5 8 18
5 8 18
5 8 18
5 8 18
5 8 18
5 8 18
5 8 18
5 8 18
5 8 18
23 20 46
5 8 18
5 8 18
28 42 68
28 42 68
28 42 68
28 42 68
28 42 68
46 54 96
28 42 68
5 8 18
28 42 68
28 42 68
28 42 68
28 42 68
28 42 68
28 42 68
28 42 68
5 8 18
28 42 68
28 42 68
28 42 68
28 42 68
28 42 68
28 42 68
28 42 68
5 8 18
28 42 68
28 42 68
28 42 68
28 42 68
46 54 96
28 42 68
28 42 68
5 8 18
28 42 68
20 27 52
29 36 70
15 22 42
37 38 78
28 35 68
14 21 40
5 8 18
28 42 68
13 20 38
22 29 56
26 33 64
17 24 46
21 28 54
25 32 62
5 8 18
28 42 68
24 31 60
15 22 42
19 26 50
28 35 68
14 21 40
18 25 48
5 8 18
28 42 68
22 29 56
26 33 64
30 31 64
21 28 54
25 32 62
29 36 70
5 8 18
28 42 68
17 24 46
27 34 66
32 33 68
24 31 60
29 36 70
21 28 54
5 8 18
28 42 68
23 30 58
15 22 42
20 27 52
12 19 36
17 24 46
22 29 56
5 8 18
28 42 68
29 36 70
16 23 44
26 33 64
13 20 38
23 30 58
28 35 68
5 8 18
28 42 68
17 24 46
40 41 84
27 34 66
19 26 50
24 31 60
16 23 44
5 8 18
28 42 68
19 26 50
43 44 90
18 25 48
24 31 60
17 24 46
23 30 58
5 8 18
28 42 68
15 22 42
21 28 54
14 21 40
25 32 62
13 20 38
24 31 60
5 8 18
28 42 68
29 36 70
22 29 56
28 35 68
21 28 54
27 34 66
20 27 52
5 8 18
28 42 68
30 31 64
18 25 48
29 36 70
17 24 46
28 35 68
16 23 44
5 8 18
28 42 68
34 35 72
23 30 58
17 24 46
29 36 70
18 25 48
12 19 36
5 8 18
28 42 68
25 32 62
14 21 40
26 33 64
20 27 52
27 34 66
21 28 54
5 8 18
28 42 68
16 23 44
23 30 58
17 24 46
24 31 60
18 25 48
12 19 36
5 8 18
46 54 96
25 32 62
14 21 40
26 33 64
15 22 42
27 34 66
21 28 54
5 8 18
46 54 96
13 20 38
26 33 64
16 23 44
29 36 70
24 31 60
14 21 40
5 8 18
28 42 68
12 19 36
25 32 62
20 27 52
15 22 42
23 30 58
18 25 48
5 8 18
28 42 68
16 23 44
29 36 70
19 26 50
14 21 40
27 34 66
17 24 46
23 20 46
28 42 68
20 27 52
28 35 68
23 30 58
18 25 48
26 33 64
21 28 54
23 20 46
28 42 68
28 35 68
24 31 60
20 27 52
29 36 70
25 32 62
21 28 54
5 8 18
28 42 68
22 29 56
18 25 48
14 21 40
28 35 68
19 26 50
15 22 42
5 8 18
28 42 68
16 23 44
12 19 36
26 33 64
22 29 56
13 20 38
45 46 94
5 8 18
28 42 68
15 22 42
24 31 60
20 27 52
16 23 44
12 19 36
21 28 54
5 8 18
5 8 18
5 8 18
5 8 18
5 8 18
5 8 18
5 8 18
5 8 18
5 8 18
5 8 18
5 8 18
5 8 18
5 8 18
5 8 18
5 8 18
5 8 18
5 8 18
5 8 18
5 8 18
5 8 18
5 8 18
5 8 18
23 20 46
5 8 18
5 8 18
5 8 18
5 8 18
5 8 18
5 8 18
5 8 18
5 8 18
5 8 18
5 8 18
28 42 68
28 42 68
28 42 68
28 42 68
28 42 68
28 42 68
28 42 68
5 8 18
28 42 68
28 42 68
28 42 68
28 42 68
28 42 68
28 42 68
28 42 68
5 8 18
28 42 68
28 42 68
28 42 68
28 42 68
46 54 96
28 42 68
28 42 68
5 8 18
28 42 68
28 42 68
28 42 68
28 42 68
28 42 68
28 42 68
28 42 68
5 8 18
28 42 68
24 31 60
23 30 58
22 29 56
21 28 54
20 27 52
19 26 50
5 8 18
28 42 68
16 23 44
15 22 42
14 21 40
13 20 38
12 19 36
29 36 70
5 8 18
28 42 68
26 33 64
25 32 62
42 43 88
23 30 58
22 29 56
21 28 54
5 8 18
28 42 68
18 25 48
17 24 46
16 23 44
15 22 42
14 21 40
13 20 38
5 8 18
28 42 68
21 28 54
21 28 54
21 28 54
21 28 54
21 28 54
21 28 54
5 8 18
28 42 68
21 28 54
21 28 54
21 28 54
26 33 64
26 33 64
26 33 64
5 8 18
28 42 68
26 33 64
44 45 92
26 33 64
26 33 64
26 33 64
26 33 64
5 8 18
28 42 68
13 20 38
13 20 38
13 20 38
13 20 38
13 20 38
13 20 38
5 8 18
28 42 68
18 25 48
19 26 50
20 27 52
21 28 54
22 29 56
28 35 68
5 8 18
28 42 68
13 20 38
14 21 40
15 22 42
21 28 54
22 29 56
23 30 58
5 8 18
28 42 68
44 45 92
27 34 66
15 22 42
16 23 44
17 24 46
18 25 48
5 8 18
28 42 68
26 33 64
27 34 66
28 35 68
29 36 70
12 19 36
13 20 38
5 8 18
28 42 68
15 22 42
17 24 46
19 26 50
26 33 64
28 35 68
12 19 36
5 8 18
28 42 68
23 30 58
25 32 62
27 34 66
16 23 44
18 25 48
20 27 52
5 8 18
46 54 96
13 20 38
15 22 42
17 24 46
19 26 50
26 33 64
28 35 68
5 8 18
28 42 68
21 28 54
23 30 58
25 32 62
27 34 66
29 36 70
18 25 48
5 8 18
28 42 68
12 19 36
15 22 42
23 30 58
26 33 64
29 36 70
19 26 50
5 8 18
28 42 68
15 22 42
18 25 48
21 28 54
29 36 70
14 21 40
17 24 46
23 20 46
28 42 68
13 20 38
16 23 44
24 31 60
27 34 66
12 19 36
20 27 52
5 8 18
28 42 68
16 23 44
19 26 50
22 29 56
25 32 62
15 22 42
18 25 48
5 8 18
28 42 68
27 34 66
18 25 48
22 29 56
26 33 64
17 24 46
21 28 54
5 8 18
28 42 68
20 27 52
29 36 70
15 22 42
24 31 60
28 35 68
32 33 68
5 8 18
28 42 68
13 20 38
22 29 56
26 33 64
17 24 46
21 28 54
25 32 62
5 8 18
28 42 68
29 36 70
15 22 42
19 26 50
28 35 68
14 21 40
18 25 48
