P3
32 32
255
130 255 255
20 150 235
20 150 235
20 150 235
20 150 235
20 150 235
20 150 235
20 150 235
130 255 255
20 150 235
20 150 235
20 150 235
20 150 235
20 150 235
20 150 235
20 150 235
130 255 255
20 150 235
20 150 235
20 150 235
20 150 235
20 150 235
20 150 235
20 150 235
130 255 255
20 150 235
20 150 235
20 150 235
20 150 235
20 150 235
20 150 235
20 150 235
20 150 235
0 2 8
0 2 8
0 2 8
0 2 8
0 2 8
0 2 8
0 2 8
20 150 235
0 2 8
0 2 8
0 2 8
0 2 8
0 2 8
0 2 8
0 2 8
20 150 235
0 2 8
0 2 8
0 2 8
0 2 8
0 2 8
0 2 8
0 2 8
20 150 235
0 2 8
0 2 8
0 2 8
0 2 8
0 2 8
0 2 8
0 2 8
20 150 235
0 2 8
0 2 8
0 2 8
0 2 8
0 2 8
0 2 8
0 2 8
20 150 235
0 2 8
0 2 8
0 2 8
0 2 8
0 2 8
0 2 8
0 2 8
20 150 235
0 2 8
0 2 8
0 2 8
0 2 8
0 2 8
0 2 8
0 2 8
20 150 235
0 2 8
0 2 8
0 2 8
0 2 8
0 2 8
0 2 8
0 2 8
20 150 235
0 2 8
0 2 8
0 2 8
0 2 8
0 2 8
0 2 8
0 2 8
20 150 235
0 2 8
0 2 8
0 2 8
0 2 8
0 2 8
0 2 8
0 2 8
20 150 235
0 2 8
0 2 8
0 2 8
0 2 8
0 2 8
0 2 8
0 2 8
20 150 235
0 2 8
0 2 8
0 2 8
0 2 8
0 2 8
0 2 8
0 2 8
20 150 235
0 2 8
0 2 8
0 2 8
0 2 8
0 2 8
0 2 8
0 2 8
20 150 235
0 2 8
0 2 8
0 2 8
0 2 8
0 2 8
0 2 8
0 2 8
20 150 235
0 2 8
0 2 8
0 2 8
0 2 8
0 2 8
0 2 8
0 2 8
20 150 235
0 2 8
0 2 8
0 2 8
0 2 8
0 2 8
0 2 8
0 2 8
20 150 235
0 2 8
0 2 8
0 2 8
0 2 8
0 2 8
0 2 8
0 2 8
20 150 235
0 2 8
0 2 8
0 2 8
0 2 8
0 2 8
0 2 8
0 2 8
20 150 235
0 2 8
0 2 8
0 2 8
0 2 8
0 2 8
0 2 8
0 2 8
20 150 235
0 2 8
0 2 8
0 2 8
0 2 8
0 2 8
0 2 8
0 2 8
20 150 235
0 2 8
0 2 8
0 2 8
0 2 8
0 2 8
0 2 8
0 2 8
20 150 235
0 2 8
0 2 8
0 2 8
0 2 8
0 2 8
0 2 8
0 2 8
20 150 235
0 2 8
0 2 8
0 2 8
0 2 8
0 2 8
0 2 8
0 2 8
20 150 235
0 2 8
0 2 8
0 2 8
0 2 8
0 2 8
0 2 8
0 2 8
20 150 235
0 2 8
0 2 8
0 2 8
0 2 8
0 2 8
0 2 8
0 2 8
20 150 235
0 2 8
0 2 8
0 2 8
0 2 8
0 2 8
0 2 8
0 2 8
20 150 235
0 2 8
0 2 8
0 2 8
0 2 8
0 2 8
0 2 8
0 2 8
20 150 235
0 2 8
0 2 8
0 2 8
0 2 8
0 2 8
0 2 8
0 2 8
130 255 255
20 150 235
20 150 235
20 150 235
20 150 235
20 150 235
20 150 235
20 150 235
130 255 255
20 150 235
20 150 235
20 150 235
20 150 235
20 150 235
20 150 235
20 150 235
130 255 255
20 150 235
20 150 235
20 150 235
20 150 235
20 150 235
20 150 235
20 150 235
130 255 255
20 150 235
20 150 235
20 150 235
20 150 235
20 150 235
20 150 235
20 150 235
20 150 235
0 2 8
0 2 8
0 2 8
0 2 8
0 2 8
0 2 8
0 2 8
20 150 235
0 2 8
0 2 8
0 2 8
0 2 8
0 2 8
0 2 8
0 2 8
20 150 235
0 2 8
0 2 8
0 2 8
0 2 8
0 2 8
0 2 8
0 2 8
20 150 235
0 2 8
0 2 8
0 2 8
0 2 8
0 2 8
0 2 8
0 2 8
20 150 235
0 2 8
0 2 8
0 2 8
0 2 8
0 2 8
0 2 8
0 2 8
20 150 235
0 2 8
0 2 8
0 2 8
0 2 8
0 2 8
0 2 8
0 2 8
20 150 235
0 2 8
0 2 8
0 2 8
0 2 8
0 2 8
0 2 8
0 2 8
20 150 235
0 2 8
0 2 8
0 2 8
0 2 8
0 2 8
0 2 8
0 2 8
20 150 235
0 2 8
0 2 8
0 2 8
0 2 8
0 2 8
0 2 8
0 2 8
20 150 235
0 2 8
0 2 8
0 2 8
0 2 8
0 2 8
0 2 8
0 2 8
20 150 235
0 2 8
0 2 8
0 2 8
0 2 8
0 2 8
0 2 8
0 2 8
20 150 235
0 2 8
0 2 8
0 2 8
0 2 8
0 2 8
0 2 8
0 2 8
20 150 235
0 2 8
0 2 8
0 2 8
0 2 8
0 2 8
0 2 8
0 2 8
20 150 235
0 2 8
0 2 8
0 2 8
0 2 8
0 2 8
0 2 8
0 2 8
20 150 235
0 2 8
0 2 8
0 2 8
0 2 8
0 2 8
0 2 8
0 2 8
20 150 235
0 2 8
0 2 8
0 2 8
0 2 8
0 2 8
0 2 8
0 2 8
20 150 235
0 2 8
0 2 8
0 2 8
0 2 8
0 2 8
0 2 8
0 2 8
20 150 235
0 2 8
0 2 8
0 2 8
0 2 8
0 2 8
0 2 8
0 2 8
20 150 235
0 2 8
0 2 8
0 2 8
0 2 8
0 2 8
0 2 8
0 2 8
20 150 235
0 2 8
0 2 8
0 2 8
0 2 8
0 2 8
0 2 8
0 2 8
20 150 235
0 2 8
0 2 8
0 2 8
0 2 8
0 2 8
0 2 8
0 2 8
20 150 235
0 2 8
0 2 8
0 2 8
0 2 8
0 2 8
0 2 8
0 2 8
20 150 235
0 2 8
0 2 8
0 2 8
0 2 8
0 2 8
0 2 8
0 2 8
20 150 235
0 2 8
0 2 8
0 2 8
0 2 8
0 2 8
0 2 8
0 2 8
20 150 235
0 2 8
0 2 8
0 2 8
0 2 8
0 2 8
0 2 8
0 2 8
20 150 235
0 2 8
0 2 8
0 2 8
0 2 8
0 2 8
0 2 8
0 2 8
20 150 235
0 2 8
0 2 8
0 2 8
0 2 8
0 2 8
0 2 8
0 2 8
20 150 235
0 2 8
0 2 8
0 2 8
0 2 8
0 2 8
0 2 8
0 2 8
130 255 255
20 150 235
20 150 235
20 150 235
20 150 235
20 150 235
20 150 235
20 150 235
130 255 255
20 150 235
20 150 235
20 150 235
20 150 235
20 150 235
20 150 235
20 150 235
130 255 255
20 150 235
20 150 235
20 150 235
20 150 235
20 150 235
20 150 235
20 150 235
130 255 255
20 150 235
20 150 235
20 150 235
20 150 235
20 150 235
20 150 235
20 150 235
20 150 235
0 2 8
0 2 8
0 2 8
0 2 8
0 2 8
0 2 8
0 2 8
20 150 235
0 2 8
0 2 8
0 2 8
0 2 8
0 2 8
0 2 8
0 2 8
20 150 235
0 2 8
0 2 8
0 2 8
0 2 8
0 2 8
0 2 8
0 2 8
20 150 235
0 2 8
0 2 8
0 2 8
0 2 8
0 2 8
0 2 8
0 2 8
20 150 235
0 2 8
0 2 8
0 2 8
0 2 8
0 2 8
0 2 8
0 2 8
20 150 235
0 2 8
0 2 8
0 2 8
0 2 8
0 2 8
0 2 8
0 2 8
20 150 235
0 2 8
0 2 8
0 2 8
0 2 8
0 2 8
0 2 8
0 2 8
20 150 235
0 2 8
0 2 8
0 2 8
0 2 8
0 2 8
0 2 8
0 2 8
20 150 235
0 2 8
0 2 8
0 2 8
0 2 8
0 2 8
0 2 8
0 2 8
20 150 235
0 2 8
0 2 8
0 2 8
0 2 8
0 2 8
0 2 8
0 2 8
20 150 235
0 2 8
0 2 8
0 2 8
0 2 8
0 2 8
0 2 8
0 2 8
20 150 235
0 2 8
0 2 8
0 2 8
0 2 8
0 2 8
0 2 8
0 2 8
20 150 235
0 2 8
0 2 8
0 2 8
0 2 8
0 2 8
0 2 8
0 2 8
20 150 235
0 2 8
0 2 8
0 2 8
0 2 8
0 2 8
0 2 8
0 2 8
20 150 235
0 2 8
0 2 8
0 2 8
0 2 8
0 2 8
0 2 8
0 2 8
20 150 235
0 2 8
0 2 8
0 2 8
0 2 8
0 2 8
0 2 8
0 2 8
20 150 235
0 2 8
0 2 8
0 2 8
0 2 8
0 2 8
0 2 8
0 2 8
20 150 235
0 2 8
0 2 8
0 2 8
0 2 8
0 2 8
0 2 8
0 2 8
20 150 235
0 2 8
0 2 8
0 2 8
0 2 8
0 2 8
0 2 8
0 2 8
20 150 235
0 2 8
0 2 8
0 2 8
0 2 8
0 2 8
0 2 8
0 2 8
20 150 235
0 2 8
0 2 8
0 2 8
0 2 8
0 2 8
0 2 8
0 2 8
20 150 235
0 2 8
0 2 8
0 2 8
0 2 8
0 2 8
0 2 8
0 2 8
20 150 235
0 2 8
0 2 8
0 2 8
0 2 8
0 2 8
0 2 8
0 2 8
20 150 235
0 2 8
0 2 8
0 2 8
0 2 8
0 2 8
0 2 8
0 2 8
20 150 235
0 2 8
0 2 8
0 2 8
0 2 8
0 2 8
0 2 8
0 2 8
20 150 235
0 2 8
0 2 8
0 2 8
0 2 8
0 2 8
0 2 8
0 2 8
20 150 235
0 2 8
0 2 8
0 2 8
0 2 8
0 2 8
0 2 8
0 2 8
20 150 235
0 2 8
0 2 8
0 2 8
0 2 8
0 2 8
0 2 8
0 2 8
130 255 255
20 150 235
20 150 235
20 150 235
20 150 235
20 150 235
20 150 235
20 150 235
130 255 255
20 150 235
20 150 235
20 150 235
20 150 235
20 150 235
20 150 235
20 150 235
130 255 255
20 150 235
20 150 235
20 150 235
20 150 235
20 150 235
20 150 235
20 150 235
130 255 255
20 150 235
20 150 235
20 150 235
20 150 235
20 150 235
20 150 235
20 150 235
20 150 235
0 2 8
0 2 8
0 2 8
0 2 8
0 2 8
0 2 8
0 2 8
20 150 235
0 2 8
0 2 8
0 2 8
0 2 8
0 2 8
0 2 8
0 2 8
20 150 235
0 2 8
0 2 8
0 2 8
0 2 8
0 2 8
0 2 8
0 2 8
20 150 235
0 2 8
0 2 8
0 2 8
0 2 8
0 2 8
0 2 8
0 2 8
20 150 235
0 2 8
0 2 8
0 2 8
0 2 8
0 2 8
0 2 8
0 2 8
20 150 235
0 2 8
0 2 8
0 2 8
0 2 8
0 2 8
0 2 8
0 2 8
20 150 235
0 2 8
0 2 8
0 2 8
0 2 8
0 2 8
0 2 8
0 2 8
20 150 235
0 2 8
0 2 8
0 2 8
0 2 8
0 2 8
0 2 8
0 2 8
20 150 235
0 2 8
0 2 8
0 2 8
0 2 8
0 2 8
0 2 8
0 2 8
20 150 235
0 2 8
0 2 8
0 2 8
0 2 8
0 2 8
0 2 8
0 2 8
20 150 235
0 2 8
0 2 8
0 2 8
0 2 8
0 2 8
0 2 8
0 2 8
20 150 235
0 2 8
0 2 8
0 2 8
0 2 8
0 2 8
0 2 8
0 2 8
20 150 235
0 2 8
0 2 8
0 2 8
0 2 8
0 2 8
0 2 8
0 2 8
20 150 235
0 2 8
0 2 8
0 2 8
0 2 8
0 2 8
0 2 8
0 2 8
20 150 235
0 2 8
0 2 8
0 2 8
0 2 8
0 2 8
0 2 8
0 2 8
20 150 235
0 2 8
0 2 8
0 2 8
0 2 8
0 2 8
0 2 8
0 2 8
20 150 235
0 2 8
0 2 8
0 2 8
0 2 8
0 2 8
0 2 8
0 2 8
20 150 235
0 2 8
0 2 8
0 2 8
0 2 8
0 2 8
0 2 8
0 2 8
20 150 235
0 2 8
0 2 8
0 2 8
0 2 8
0 2 8
0 2 8
0 2 8
20 150 235
0 2 8
0 2 8
0 2 8
0 2 8
0 2 8
0 2 8
0 2 8
20 150 235
0 2 8
0 2 8
0 2 8
0 2 8
0 2 8
0 2 8
0 2 8
20 150 235
0 2 8
0 2 8
0 2 8
0 2 8
0 2 8
0 2 8
0 2 8
20 150 235
0 2 8
0 2 8
0 2 8
0 2 8
0 2 8
0 2 8
0 2 8
20 150 235
0 2 8
0 2 8
0 2 8
0 2 8
0 2 8
0 2 8
0 2 8
20 150 235
0 2 8
0 2 8
0 2 8
0 2 8
0 2 8
0 2 8
0 2 8
20 150 235
0 2 8
0 2 8
0 2 8
0 2 8
0 2 8
0 2 8
0 2 8
20 150 235
0 2 8
0 2 8
0 2 8
0 2 8
0 2 8
0 2 8
0 2 8
20 150 235
0 2 8
0 2 8
0 2 8
0 2 8
0 2 8
0 2 8
0 2 8
