P3
32 32
255
102 102 217
150 102 217
128 102 226
128 102 226
128 102 226
128 102 226
128 102 226
128 102 226
102 102 217
150 102 217
128 102 226
128 102 226
128 102 226
128 102 226
128 102 226
128 102 226
102 102 217
150 102 217
128 102 226
128 102 226
128 102 226
128 102 226
128 102 226
128 102 226
102 102 217
150 102 217
128 102 226
128 102 226
128 102 226
128 102 226
128 102 226
128 102 226
102 150 217
150 150 217
128 150 230
128 150 230
128 150 230
128 150 230
128 150 230
128 150 230
102 150 217
150 150 217
128 150 230
128 150 230
128 150 230
128 150 230
128 150 230
128 150 230
102 150 217
150 150 217
128 150 230
128 150 230
128 150 230
128 150 230
128 150 230
128 150 230
102 150 217
150 150 217
128 150 230
128 150 230
128 150 230
128 150 230
128 150 230
128 150 230
102 128 226
150 128 230
128 128 252
128 128 252
128 128 252
128 128 252
128 128 252
128 128 252
102 128 226
150 128 230
128 128 252
128 128 252
128 128 252
128 128 252
128 128 252
128 128 252
102 128 226
150 128 230
128 128 252
128 128 252
128 128 252
128 128 252
128 128 252
128 128 252
102 128 226
150 128 230
128 128 252
128 128 252
128 128 252
128 128 252
128 128 252
128 128 252
102 128 226
150 128 230
128 128 252
128 128 252
128 128 252
128 128 252
128 128 252
128 128 252
102 128 226
150 128 230
128 128 252
128 128 252
128 128 252
128 128 252
128 128 252
128 128 252
102 128 226
150 128 230
128 128 252
128 128 252
128 128 252
128 128 252
128 128 252
128 128 252
102 128 226
150 128 230
128 128 252
128 128 252
128 128 252
128 128 252
128 128 252
128 128 252
102 128 226
150 128 230
128 128 252
128 128 252
128 128 252
128 128 252
128 128 252
128 128 252
102 128 226
150 128 230
128 128 252
128 128 252
128 128 252
128 128 252
128 128 252
128 128 252
102 128 226
150 128 230
128 128 252
128 128 252
128 128 252
128 128 252
128 128 252
128 128 252
102 128 226
150 128 230
128 128 252
128 128 252
128 128 252
128 128 252
128 128 252
128 128 252
102 128 226
150 128 230
128 128 252
128 128 252
128 128 252
128 128 252
128 128 252
128 128 252
102 128 226
150 128 230
128 128 252
128 128 252
128 128 252
128 128 252
128 128 252
128 128 252
102 128 226
150 128 230
128 128 252
128 128 252
128 128 252
128 128 252
128 128 252
128 128 252
102 128 226
150 128 230
128 128 252
128 128 252
128 128 252
128 128 252
128 128 252
128 128 252
102 128 226
150 128 230
128 128 252
128 128 252
128 128 252
128 128 252
128 128 252
128 128 252
102 128 226
150 128 230
128 128 252
128 128 252
128 128 252
128 128 252
128 128 252
128 128 252
102 128 226
150 128 230
128 128 252
128 128 252
128 128 252
128 128 252
128 128 252
128 128 252
102 128 226
150 128 230
128 128 252
128 128 252
128 128 252
128 128 252
128 128 252
128 128 252
102 128 226
150 128 230
128 128 252
128 128 252
128 128 252
128 128 252
128 128 252
128 128 252
102 128 226
150 128 230
128 128 252
128 128 252
128 128 252
128 128 252
128 128 252
128 128 252
102 128 226
150 128 230
128 128 252
128 128 252
128 128 252
128 128 252
128 128 252
128 128 252
102 128 226
150 128 230
128 128 252
128 128 252
128 128 252
128 128 252
128 128 252
128 128 252
102 102 217
150 102 217
128 102 226
128 102 226
128 102 226
128 102 226
128 102 226
128 102 226
102 102 217
150 102 217
128 102 226
128 102 226
128 102 226
128 102 226
128 102 226
128 102 226
102 102 217
150 102 217
128 102 226
128 102 226
128 102 226
128 102 226
128 102 226
128 102 226
102 102 217
150 102 217
128 102 226
128 102 226
128 102 226
128 102 226
128 102 226
128 102 226
102 150 217
150 150 217
128 150 230
128 150 230
128 150 230
128 150 230
128 150 230
128 150 230
102 150 217
150 150 217
128 150 230
128 150 230
128 150 230
128 150 230
128 150 230
128 150 230
102 150 217
150 150 217
128 150 230
128 150 230
128 150 230
128 150 230
128 150 230
128 150 230
102 150 217
150 150 217
128 150 230
128 150 230
128 150 230
128 150 230
128 150 230
128 150 230
102 128 226
150 128 230
128 128 252
128 128 252
128 128 252
128 128 252
128 128 252
128 128 252
102 128 226
150 128 230
128 128 252
128 128 252
128 128 252
128 128 252
128 128 252
128 128 252
102 128 226
150 128 230
128 128 252
128 128 252
128 128 252
128 128 252
128 128 252
128 128 252
102 128 226
150 128 230
128 128 252
128 128 252
128 128 252
128 128 252
128 128 252
128 128 252
102 128 226
150 128 230
128 128 252
128 128 252
128 128 252
128 128 252
128 128 252
128 128 252
102 128 226
150 128 230
128 128 252
128 128 252
128 128 252
128 128 252
128 128 252
128 128 252
102 128 226
150 128 230
128 128 252
128 128 252
128 128 252
128 128 252
128 128 252
128 128 252
102 128 226
150 128 230
128 128 252
128 128 252
128 128 252
128 128 252
128 128 252
128 128 252
102 128 226
150 128 230
128 128 252
128 128 252
128 128 252
128 128 252
128 128 252
128 128 252
102 128 226
150 128 230
128 128 252
128 128 252
128 128 252
128 128 252
128 128 252
128 128 252
102 128 226
150 128 230
128 128 252
128 128 252
128 128 252
128 128 252
128 128 252
128 128 252
102 128 226
150 128 230
128 128 252
128 128 252
128 128 252
128 128 252
128 128 252
128 128 252
102 128 226
150 128 230
128 128 252
128 128 252
128 128 252
128 128 252
128 128 252
128 128 252
102 128 226
150 128 230
128 128 252
128 128 252
128 128 252
128 128 252
128 128 252
128 128 252
102 128 226
150 128 230
128 128 252
128 128 252
128 128 252
128 128 252
128 128 252
128 128 252
102 128 226
150 128 230
128 128 252
128 128 252
128 128 252
128 128 252
128 128 252
128 128 252
102 128 226
150 128 230
128 128 252
128 128 252
128 128 252
128 128 252
128 128 252
128 128 252
102 128 226
150 128 230
128 128 252
128 128 252
128 128 252
128 128 252
128 128 252
128 128 252
102 128 226
150 128 230
128 128 252
128 128 252
128 128 252
128 128 252
128 128 252
128 128 252
102 128 226
150 128 230
128 128 252
128 128 252
128 128 252
128 128 252
128 128 252
128 128 252
102 128 226
150 128 230
128 128 252
128 128 252
128 128 252
128 128 252
128 128 252
128 128 252
102 128 226
150 128 230
128 128 252
128 128 252
128 128 252
128 128 252
128 128 252
128 128 252
102 128 226
150 128 230
128 128 252
128 128 252
128 128 252
128 128 252
128 128 252
128 128 252
102 128 226
150 128 230
128 128 252
128 128 252
128 128 252
128 128 252
128 128 252
128 128 252
102 102 217
150 102 217
128 102 226
128 102 226
128 102 226
128 102 226
128 102 226
128 102 226
102 102 217
150 102 217
128 102 226
128 102 226
128 102 226
128 102 226
128 102 226
128 102 226
102 102 217
150 102 217
128 102 226
128 102 226
128 102 226
128 102 226
128 102 226
128 102 226
102 102 217
150 102 217
128 102 226
128 102 226
128 102 226
128 102 226
128 102 226
128 102 226
102 150 217
150 150 217
128 150 230
128 150 230
128 150 230
128 150 230
128 150 230
128 150 230
102 150 217
150 150 217
128 150 230
128 150 230
128 150 230
128 150 230
128 150 230
128 150 230
102 150 217
150 150 217
128 150 230
128 150 230
128 150 230
128 150 230
128 150 230
128 150 230
102 150 217
150 150 217
128 150 230
128 150 230
128 150 230
128 150 230
128 150 230
128 150 230
102 128 226
150 128 230
128 128 252
128 128 252
128 128 252
128 128 252
128 128 252
128 128 252
102 128 226
150 128 230
128 128 252
128 128 252
128 128 252
128 128 252
128 128 252
128 128 252
102 128 226
150 128 230
128 128 252
128 128 252
128 128 252
128 128 252
128 128 252
128 128 252
102 128 226
150 128 230
128 128 252
128 128 252
128 128 252
128 128 252
128 128 252
128 128 252
102 128 226
150 128 230
128 128 252
128 128 252
128 128 252
128 128 252
128 128 252
128 128 252
102 128 226
150 128 230
128 128 252
128 128 252
128 128 252
128 128 252
128 128 252
128 128 252
102 128 226
150 128 230
128 128 252
128 128 252
128 128 252
128 128 252
128 128 252
128 128 252
102 128 226
150 128 230
128 128 252
128 128 252
128 128 252
128 128 252
128 128 252
128 128 252
102 128 226
150 128 230
128 128 252
128 128 252
128 128 252
128 128 252
128 128 252
128 128 252
102 128 226
150 128 230
128 128 252
128 128 252
128 128 252
128 128 252
128 128 252
128 128 252
102 128 226
150 128 230
128 128 252
128 128 252
128 128 252
128 128 252
128 128 252
128 128 252
102 128 226
150 128 230
128 128 252
128 128 252
128 128 252
128 128 252
128 128 252
128 128 252
102 128 226
150 128 230
128 128 252
128 128 252
128 128 252
128 128 252
128 128 252
128 128 252
102 128 226
150 128 230
128 128 252
128 128 252
128 128 252
128 128 252
128 128 252
128 128 252
102 128 226
150 128 230
128 128 252
128 128 252
128 128 252
128 128 252
128 128 252
128 128 252
102 128 226
150 128 230
128 128 252
128 128 252
128 128 252
128 128 252
128 128 252
128 128 252
102 128 226
150 128 230
128 128 252
128 128 252
128 128 252
128 128 252
128 128 252
128 128 252
102 128 226
150 128 230
128 128 252
128 128 252
128 128 252
128 128 252
128 128 252
128 128 252
102 128 226
150 128 230
128 128 252
128 128 252
128 128 252
128 128 252
128 128 252
128 128 252
102 128 226
150 128 230
128 128 252
128 128 252
128 128 252
128 128 252
128 128 252
128 128 252
102 128 226
150 128 230
128 128 252
128 128 252
128 128 252
128 128 252
128 128 252
128 128 252
102 128 226
150 128 230
128 128 252
128 128 252
128 128 252
128 128 252
128 128 252
128 128 252
102 128 226
150 128 230
128 128 252
128 128 252
128 128 252
128 128 252
128 128 252
128 128 252
102 128 226
150 128 230
128 128 252
128 128 252
128 128 252
128 128 252
128 128 252
128 128 252
102 102 217
150 102 217
128 102 226
128 102 226
128 102 226
128 102 226
128 102 226
128 102 226
102 102 217
150 102 217
128 102 226
128 102 226
128 102 226
128 102 226
128 102 226
128 102 226
102 102 217
150 102 217
128 102 226
128 102 226
128 102 226
128 102 226
128 102 226
128 102 226
102 102 217
150 102 217
128 102 226
128 102 226
128 102 226
128 102 226
128 102 226
128 102 226
102 150 217
150 150 217
128 150 230
128 150 230
128 150 230
128 150 230
128 150 230
128 150 230
102 150 217
150 150 217
128 150 230
128 150 230
128 150 230
128 150 230
128 150 230
128 150 230
102 150 217
150 150 217
128 150 230
128 150 230
128 150 230
128 150 230
128 150 230
128 150 230
102 150 217
150 150 217
128 150 230
128 150 230
128 150 230
128 150 230
128 150 230
128 150 230
102 128 226
150 128 230
128 128 252
128 128 252
128 128 252
128 128 252
128 128 252
128 128 252
102 128 226
150 128 230
128 128 252
128 128 252
128 128 252
128 128 252
128 128 252
128 128 252
102 128 226
150 128 230
128 128 252
128 128 252
128 128 252
128 128 252
128 128 252
128 128 252
102 128 226
150 128 230
128 128 252
128 128 252
128 128 252
128 128 252
128 128 252
128 128 252
102 128 226
150 128 230
128 128 252
128 128 252
128 128 252
128 128 252
128 128 252
128 128 252
102 128 226
150 128 230
128 128 252
128 128 252
128 128 252
128 128 252
128 128 252
128 128 252
102 128 226
150 128 230
128 128 252
128 128 252
128 128 252
128 128 252
128 128 252
128 128 252
102 128 226
150 128 230
128 128 252
128 128 252
128 128 252
128 128 252
128 128 252
128 128 252
102 128 226
150 128 230
128 128 252
128 128 252
128 128 252
128 128 252
128 128 252
128 128 252
102 128 226
150 128 230
128 128 252
128 128 252
128 128 252
128 128 252
128 128 252
128 128 252
102 128 226
150 128 230
128 128 252
128 128 252
128 128 252
128 128 252
128 128 252
128 128 252
102 128 226
150 128 230
128 128 252
128 128 252
128 128 252
128 128 252
128 128 252
128 128 252
102 128 226
150 128 230
128 128 252
128 128 252
128 128 252
128 128 252
128 128 252
128 128 252
102 128 226
150 128 230
128 128 252
128 128 252
128 128 252
128 128 252
128 128 252
128 128 252
102 128 226
150 128 230
128 128 252
128 128 252
128 128 252
128 128 252
128 128 252
128 128 252
102 128 226
150 128 230
128 128 252
128 128 252
128 128 252
128 128 252
128 128 252
128 128 252
102 128 226
150 128 230
128 128 252
128 128 252
128 128 252
128 128 252
128 128 252
128 128 252
102 128 226
150 128 230
128 128 252
128 128 252
128 128 252
128 128 252
128 128 252
128 128 252
102 128 226
150 128 230
128 128 252
128 128 252
128 128 252
128 128 252
128 128 252
128 128 252
102 128 226
150 128 230
128 128 252
128 128 252
128 128 252
128 128 252
128 128 252
128 128 252
102 128 226
150 128 230
128 128 252
128 128 252
128 128 252
128 128 252
128 128 252
128 128 252
102 128 226
150 128 230
128 128 252
128 128 252
128 128 252
128 128 252
128 128 252
128 128 252
102 128 226
150 128 230
128 128 252
128 128 252
128 128 252
128 128 252
128 128 252
128 128 252
102 128 226
150 128 230
128 128 252
128 128 252
128 128 252
128 128 252
128 128 252
128 128 252
